assets/img/twitter.svg

<svg width="25" height="21" viewBox="0 0 25 21" fill="none" xmlns="http://www.w3.org/2000/svg">
<path d="M24.8872 3.04499C23.9872 3.43499 23.0572 3.70498 22.0672 3.82499C23.0872 3.22498 23.8672 2.26499 24.2272 1.09499C23.2672 1.66499 22.2172 2.05499 21.1072 2.29499C20.2072 1.33499 18.9172 0.734985 17.5072 0.734985C14.7772 0.734985 12.5872 2.95499 12.5872 5.65499C12.5872 6.04499 12.6172 6.40498 12.7072 6.76498C8.62721 6.58498 5.02721 4.60498 2.59721 1.63499C0.857207 4.75498 2.80721 7.33499 4.09721 8.20499C3.31721 8.20499 2.53721 7.96499 1.87721 7.60499C1.87721 10.035 3.58721 12.045 5.80721 12.495C5.32721 12.645 4.24721 12.735 3.58721 12.585C4.21721 14.535 6.04721 15.975 8.17721 16.005C6.49721 17.325 4.03721 18.375 0.887207 18.045C3.07721 19.455 5.65721 20.265 8.44721 20.265C17.5072 20.265 22.4272 12.765 22.4272 6.28499C22.4272 6.07499 22.4272 5.86499 22.3972 5.65499C23.4172 4.90499 24.2572 4.03499 24.8872 3.04499Z" fill="#151512"/>
</svg>

<svg width="25" height="21" fill="none" xmlns="http://www.w3.org/2000/svg"><path d="M24.887 3.045c-.9.39-1.83.66-2.82.78a4.8 4.8 0 002.16-2.73c-.96.57-2.01.96-3.12 1.2a4.923 4.923 0 00-8.52 3.36c0 .39.03.75.12 1.11-4.08-.18-7.68-2.16-10.11-5.13-1.74 3.12.21 5.7 1.5 6.57-.78 0-1.56-.24-2.22-.6 0 2.43 1.71 4.44 3.93 4.89-.48.15-1.56.24-2.22.09.63 1.95 2.46 3.39 4.59 3.42-1.68 1.32-4.14 2.37-7.29 2.04 2.19 1.41 4.77 2.22 7.56 2.22 9.06 0 13.98-7.5 13.98-13.98 0-.21 0-.42-.03-.63 1.02-.75 1.86-1.62 2.49-2.61z" fill="#151512"/></svg>
